assets/images/travel-cvv.svg

<svg viewBox="0 0 194 76" fill="none" xmlns="http://www.w3.org/2000/svg">
<path d="M8 0.5H40C44.1421 0.5 47.5 3.85786 47.5 8V44C47.5 48.1421 44.1421 51.5 40 51.5H8C3.85786 51.5 0.5 48.1421 0.5 44V8C0.5 3.85786 3.85786 0.5 8 0.5Z" stroke="#002140"/>
<path d="M23.9659 29.43C21.5879 29.43 19.7839 27.626 19.7839 25.248C19.7839 22.87 21.5879 21.025 23.9659 21.025C26.3849 21.025 28.2299 22.87 28.2299 25.248C28.2299 27.626 26.3439 29.43 23.9659 29.43Z" fill="#0185FF"/>
<path d="M64 0.5H96C100.142 0.5 103.5 3.85786 103.5 8V44C103.5 48.1421 100.142 51.5 96 51.5H64C59.8579 51.5 56.5 48.1421 56.5 44V8C56.5 3.85786 59.8579 0.5 64 0.5Z" stroke="#002140"/>
<path d="M79.9659 29.43C77.5879 29.43 75.7839 27.626 75.7839 25.248C75.7839 22.87 77.5879 21.025 79.9659 21.025C82.3849 21.025 84.2299 22.87 84.2299 25.248C84.2299 27.626 82.3439 29.43 79.9659 29.43Z" fill="#0185FF"/>
<path d="M120 0.5H152C156.142 0.5 159.5 3.85786 159.5 8V44C159.5 48.1421 156.142 51.5 152 51.5H120C115.858 51.5 112.5 48.1421 112.5 44V8C112.5 3.85786 115.858 0.5 120 0.5Z" stroke="#002140"/>
<path d="M135.966 29.43C133.588 29.43 131.784 27.626 131.784 25.248C131.784 22.87 133.588 21.025 135.966 21.025C138.385 21.025 140.23 22.87 140.23 25.248C140.23 27.626 138.344 29.43 135.966 29.43Z" fill="#0185FF"/>
<path d="M183.66 25.7815L184.546 22.4735C184.546 22.4735 184.638 18.8266 181.8 18.0662L171.403 15.2802C171.403 15.2802 168.234 14.8129 167.633 17.0562L166.557 21.0728L169.865 21.9592C169.865 21.9592 170.783 18.5337 173.147 19.1672L179.172 20.7816C179.172 20.7816 180.485 22.0189 179.852 24.3833L183.655 25.7841L183.66 25.7815Z" fill="#0164BF"/>
<path d="M153.399 62.6274L164.479 21.2756C164.479 21.2756 157.588 20.0625 156.196 25.2577C154.803 30.4529 147.957 54.5818 147.957 54.5818C147.957 54.5818 147.2 60.7105 153.4 62.6238L153.399 62.6274Z" fill="#0164BF"/>
<path d="M185.184 26.2316L164.627 20.7235L153.273 63.0972L172.73 68.3105C172.73 68.3105 180.241 68.6363 181.74 63.0423L189.274 34.9261C189.274 34.9261 191.384 30.511 185.188 26.2326L185.184 26.2316Z" fill="#003C73"/>
<path d="M170.491 28.9239C170.835 27.6397 170.073 26.3199 168.79 25.9761C167.507 25.6322 166.188 26.3945 165.844 27.6787L158.099 56.5819C157.755 57.8661 158.516 59.1858 159.8 59.5297C161.083 59.8735 162.402 59.1112 162.746 57.827L170.491 28.9239Z" fill="#002140"/>
<path d="M177.737 30.8655C178.081 29.5813 177.32 28.2616 176.036 27.9177C174.753 27.5739 173.434 28.3362 173.09 29.6204L165.345 58.5235C165.001 59.8077 165.762 61.1275 167.046 61.4713C168.329 61.8151 169.648 61.0528 169.992 59.7687L177.737 30.8655Z" fill="#002140"/>
<path d="M184.983 32.807C185.327 31.5229 184.566 30.2031 183.282 29.8593C181.999 29.5154 180.68 30.2777 180.336 31.5619L172.591 60.4651C172.247 61.7492 173.009 63.069 174.292 63.4128C175.575 63.7567 176.894 62.9944 177.238 61.7102L184.983 32.807Z" fill="#002140"/>
<path d="M183.521 38.1094L180.124 35.3445L176.395 37.2992L175.406 46.6593L182.511 47.5478L183.521 38.1094Z" fill="#F9B5FE"/>
<path d="M183.821 26.0038L164.857 20.9222C160.796 19.834 156.621 22.244 155.533 26.305L148.186 53.7268C147.097 57.7878 149.507 61.962 153.568 63.0502L172.533 68.1318C176.594 69.22 180.768 66.81 181.857 62.749L189.204 35.3271C190.292 31.2661 187.882 27.0919 183.821 26.0038Z" stroke="#002140" stroke-linecap="round" stroke-linejoin="round"/>
<path d="M153.18 62.8203L164.429 20.8383" stroke="#002140" stroke-linecap="round" stroke-linejoin="round"/>
<path d="M151.805 68.108C153.132 68.4637 154.497 67.6759 154.852 66.3485C155.208 65.021 154.42 63.6566 153.093 63.3009C151.765 62.9452 150.401 63.733 150.045 65.0604C149.689 66.3879 150.477 67.7523 151.805 68.108Z" fill="#002140"/>
<path d="M171.023 73.2574C172.35 73.6131 173.715 72.8253 174.07 71.4979C174.426 70.1704 173.638 68.806 172.311 68.4503C170.983 68.0946 169.619 68.8824 169.263 70.2098C168.908 71.5373 169.695 72.9017 171.023 73.2574Z" fill="#002140"/>
<path d="M183.573 25.6323L184.382 22.6127C184.926 20.583 183.722 18.4971 181.692 17.9533L171.875 15.3228C169.846 14.7789 167.76 15.9832 167.216 18.0129L166.407 21.0325" stroke="#002140" stroke-linecap="round" stroke-linejoin="round"/>
<path d="M179.928 24.7392L180.274 23.4466C180.619 22.1612 179.856 20.8348 178.567 20.4894L173.382 19.1002C172.097 18.7557 170.77 19.5185 170.425 20.8076L170.1 22.0218" stroke="#002140" stroke-linecap="round" stroke-linejoin="round"/>
<path d="M171.718 22.9175C173.138 24.542 178.044 30.36 179.896 35.2414C179.896 35.2414 182.412 30.8628 182.888 25.9982" stroke="#002140" stroke-linecap="round" stroke-linejoin="round"/>
<path d="M176.238 37.2571L175.186 46.8523L182.332 47.5841L183.348 37.8113L179.946 35.2395L176.238 37.2571Z" stroke="#002140" stroke-linecap="round" stroke-linejoin="round"/>
<path d="M152.195 66.5944C152.685 66.7256 153.188 66.435 153.32 65.9453C153.451 65.4556 153.16 64.9523 152.671 64.8211C152.181 64.6899 151.678 64.9805 151.546 65.4701C151.415 65.9598 151.706 66.4631 152.195 66.5944Z" fill="#003C73"/>
<path d="M171.427 71.7476C171.917 71.8788 172.42 71.5882 172.552 71.0985C172.683 70.6088 172.392 70.1055 171.903 69.9743C171.413 69.8431 170.91 70.1337 170.778 70.6233C170.647 71.113 170.938 71.6163 171.427 71.7476Z" fill="#003C73"/>
</svg>

<svg xmlns="http://www.w3.org/2000/svg" fill="none" viewBox="0 0 194 76"><path stroke="#002140" d="M8 .5h32A7.5 7.5 0 0 1 47.5 8v36a7.5 7.5 0 0 1-7.5 7.5H8A7.5 7.5 0 0 1 .5 44V8A7.5 7.5 0 0 1 8 .5Z"/><path fill="#0185ff" d="M23.966 29.43c-2.378 0-4.182-1.804-4.182-4.182s1.804-4.223 4.182-4.223c2.419 0 4.264 1.845 4.264 4.223s-1.886 4.182-4.264 4.182"/><path stroke="#002140" d="M64 .5h32a7.5 7.5 0 0 1 7.5 7.5v36a7.5 7.5 0 0 1-7.5 7.5H64a7.5 7.5 0 0 1-7.5-7.5V8A7.5 7.5 0 0 1 64 .5Z"/><path fill="#0185ff" d="M79.966 29.43c-2.378 0-4.182-1.804-4.182-4.182s1.804-4.223 4.182-4.223c2.419 0 4.264 1.845 4.264 4.223s-1.886 4.182-4.264 4.182"/><path stroke="#002140" d="M120 .5h32a7.5 7.5 0 0 1 7.5 7.5v36a7.5 7.5 0 0 1-7.5 7.5h-32a7.5 7.5 0 0 1-7.5-7.5V8A7.5 7.5 0 0 1 120 .5Z"/><path fill="#0185ff" d="M135.966 29.43c-2.378 0-4.182-1.804-4.182-4.182s1.804-4.223 4.182-4.223c2.419 0 4.264 1.845 4.264 4.223s-1.886 4.182-4.264 4.182"/><path fill="#0164bf" d="m183.66 25.782.886-3.308s.092-3.647-2.746-4.408l-10.397-2.786s-3.169-.467-3.77 1.776l-1.076 4.017 3.308.886s.918-3.425 3.282-2.792l6.025 1.615s1.313 1.237.68 3.601l3.803 1.401zm-30.261 36.845 11.08-41.351s-6.891-1.213-8.283 3.982c-1.393 5.195-8.239 29.324-8.239 29.324s-.757 6.129 5.443 8.042z"/><path fill="#003c73" d="m185.184 26.232-20.557-5.508-11.354 42.373 19.457 5.214s7.511.325 9.01-5.269l7.534-28.116s2.11-4.415-4.086-8.693z"/><path fill="#002140" d="M170.491 28.924a2.406 2.406 0 1 0-4.647-1.245l-7.745 28.903a2.406 2.406 0 1 0 4.647 1.245zm7.246 1.942a2.406 2.406 0 1 0-4.647-1.246l-7.745 28.903a2.406 2.406 0 1 0 4.647 1.246zm7.246 1.941a2.406 2.406 0 1 0-4.647-1.245l-7.745 28.903a2.406 2.406 0 1 0 4.647 1.245z"/><path fill="#f9b5fe" d="m183.521 38.11-3.397-2.766-3.729 1.955-.989 9.36 7.105.889z"/><path stroke="#002140" stroke-linecap="round" stroke-linejoin="round" d="m183.821 26.004-18.964-5.082a7.613 7.613 0 0 0-9.324 5.383l-7.347 27.422a7.61 7.61 0 0 0 5.382 9.323l18.965 5.082a7.613 7.613 0 0 0 9.324-5.383l7.347-27.422a7.613 7.613 0 0 0-5.383-9.323M153.18 62.82l11.249-41.982"/><path fill="#002140" d="M151.805 68.108a2.488 2.488 0 1 0 1.288-4.806 2.488 2.488 0 0 0-1.288 4.806m19.218 5.149a2.488 2.488 0 1 0 1.288-4.805 2.488 2.488 0 0 0-1.288 4.805"/><path stroke="#002140" stroke-linecap="round" stroke-linejoin="round" d="m183.573 25.632.809-3.02a3.804 3.804 0 0 0-2.69-4.659l-9.817-2.63a3.804 3.804 0 0 0-4.659 2.69l-.809 3.02"/><path stroke="#002140" stroke-linecap="round" stroke-linejoin="round" d="m179.928 24.74.346-1.293a2.415 2.415 0 0 0-1.707-2.958l-5.185-1.389a2.415 2.415 0 0 0-2.957 1.708l-.325 1.214m1.618.896c1.42 1.624 6.326 7.442 8.178 12.323 0 0 2.516-4.378 2.992-9.243m-6.65 11.259-1.052 9.595 7.146.732 1.016-9.773-3.402-2.572z"/><path fill="#003c73" d="M152.195 66.594a.919.919 0 1 0 .475-1.775.919.919 0 0 0-.475 1.775m19.232 5.154a.919.919 0 1 0 .475-1.776.919.919 0 0 0-.475 1.776"/></svg>
